assets/Shortcake/Flat/shortcake_flat.svg

<svg width="32" height="32" viewBox="0 0 32 32" fill="none" xmlns="http://www.w3.org/2000/svg">
<path d="M3.62662 29.8194L28.2564 22.7518L29.044 22.0281V7.97828L28.0222 5.99854L2.07263 13.3428V28.2866C2.07263 29.5124 2.5681 30.0718 3.62662 29.8194Z" fill="#E19747"/>
<path d="M13.0343 2.50785L3.06371 11.7306C1.11778 13.3925 2.12897 14.5421 3.99846 14.1298L27.0243 7.52429C27.6164 7.38349 27.9902 7.33764 27.9902 8.02282V12.0422C27.9902 12.73 28.0535 13.0877 27.6164 13.2262C27.6164 13.2262 5.41102 19.9199 4.93321 20.0499C4.45539 20.1799 3.39347 20.3784 3.06371 20.3303C2.73396 20.2822 2.31593 20.0499 2.12897 20.0499C1.94202 20.0499 1.94202 20.1583 1.94202 20.673V22.8402C1.94202 23.0031 2.08255 23.1077 2.08255 23.1077C2.61036 23.4445 3.33529 23.5904 3.99846 23.415L27.2424 16.6848C27.6164 16.5914 27.9902 16.8413 27.9902 17.308V22.6064C27.9902 22.9277 28.1845 22.9449 28.3223 22.9277C29.3142 22.6422 30 22.0554 30 21.0469V8.02282C30 7.1697 29.3829 5.7452 27.9902 5.31206L16.9603 2.72593C15.9126 2.50785 13.8883 1.84658 13.0343 2.50785Z" fill="#FFDEA7"/>
<path d="M12.0239 4.51721C12.15 3.88874 12.3587 2.11502 14.5399 1.68115L16.8961 2.88827L17.7542 5.46254C16.9495 7.62399 15.2905 7.46959 14.6272 7.46959H12.6638C12.0239 7.46959 11.6603 7.106 11.7475 6.43698L12.0239 4.51721Z" fill="#F8312F"/>
<path d="M16.9397 4.37186C16.5 3.87735 16.6198 3.12106 16.6198 3.12106C16.6198 3.12106 15.9063 3.12106 15.558 2.74292L14.3654 1.50669C14.3008 1.41943 14.3654 1.3235 14.4527 1.25942C14.4527 1.25942 15.1544 0.727663 16.2416 1.41943C16.8438 1.86328 17.9883 3.28125 18.2777 3.87735C18.8047 4.77734 18.1323 5.5499 18.1323 5.5499C18.0547 5.64453 17.9649 5.67188 17.856 5.5499L16.9397 4.37186Z" fill="#86D72F"/>
</svg>

<svg xmlns="http://www.w3.org/2000/svg" width="32" height="32" fill="none"><path fill="#E19747" d="m3.627 29.82 24.63-7.068.787-.724V7.978l-1.022-1.98-25.95 7.345v14.944c0 1.225.496 1.785 1.555 1.532Z"/><path fill="#FFDEA7" d="m13.034 2.508-9.97 9.223c-1.946 1.662-.935 2.811.934 2.399l23.026-6.606c.592-.14.966-.186.966.499v4.02c0 .687.064 1.045-.374 1.183 0 0-22.205 6.694-22.683 6.824-.478.13-1.54.328-1.87.28-.329-.048-.747-.28-.934-.28-.187 0-.187.108-.187.623v2.167c0 .163.14.268.14.268a2.479 2.479 0 0 0 1.916.307l23.244-6.73c.374-.094.748.156.748.623v5.298c0 .322.195.339.332.322.992-.286 1.678-.873 1.678-1.881V8.023c0-.853-.617-2.278-2.01-2.71L16.96 2.725c-1.047-.218-3.072-.88-3.926-.218Z"/><path fill="#F8312F" d="M12.024 4.517c.126-.628.335-2.402 2.516-2.836l2.356 1.207.858 2.575C16.95 7.624 15.29 7.47 14.627 7.47h-1.963c-.64 0-1.004-.364-.916-1.033l.276-1.92Z"/><path fill="#86D72F" d="M16.94 4.372c-.44-.495-.32-1.25-.32-1.25s-.714 0-1.062-.38l-1.193-1.235c-.064-.088 0-.183.088-.248 0 0 .701-.531 1.789.16.602.444 1.746 1.862 2.036 2.458.527.9-.146 1.673-.146 1.673-.077.095-.167.122-.276 0l-.916-1.178Z"/></svg>
